images/stake.svg

<svg height="250" viewBox="0 0 250 250" width="250" xmlns="http://www.w3.org/2000/svg"><g fill-rule="evenodd"><path d="m125 .0976562c68.945312 0 125 55.9570318 125 124.9023438s-56.054688 124.902344-125 124.902344-125-55.957032-125-124.902344 56.054688-124.9023438 125-124.9023438zm0 0" fill="#48a9a6"/><g fill="#fff"><path d="m60.839844 86.621094h51.367187v-25.683594h-51.367187zm0 0"/><path d="m137.792969 86.621094h51.367187v-25.683594h-51.367187zm0 0"/><path d="m189.160156 137.890625h-25.683594v25.683594h-25.683593v25.683593h51.367187zm0 0"/><path d="m112.207031 189.257812v-25.683593h-25.683593v-25.683594h-25.683594v51.367187zm0 0"/></g></g></svg>

<svg xmlns="http://www.w3.org/2000/svg" width="250" height="250"><g fill-rule="evenodd"><path fill="#48a9a6" d="M125 .098C193.945.098 250 56.055 250 125s-56.055 124.902-125 124.902S0 193.945 0 125 56.055.098 125 .098zm0 0"/><g fill="#fff"><path d="M60.84 86.621h51.367V60.938H60.84zM137.793 86.621h51.367V60.938h-51.367zM189.16 137.89h-25.683v25.684h-25.684v25.684h51.367zM112.207 189.258v-25.684H86.523v-25.683H60.84v51.367zm0 0"/></g></g></svg>
